X:1
T: The New Scotland Dancers' Strathspey
C:
R:Strathspey
Q: 128
K:Am
M:4/4
L:1/16
|:E4|CE3 E4 Ac3 c3e|d3c Bc3 B8|CE3 E4 Ac3 c3e|d3c Bc3 A4 E4|
CE3 E4 Ac3 c3e|d3c Bc3 B8|CE3 E4 Ac3 c3e|d3c Bc3 A4:|
|:c3d|ec3 a3g f3e d3c|B3c df3 e4 e3d|cA3 A3c d3c B3A|^G3A Bc3 d4 c3d|
ec3 a3g f3e d3c|B3c df3 e4 e3d|cA3 A4 B3c dB3|ec3 B3c A4:|
